X:32
T:Trumpett's Tune. HA.033
M:3/4
Q:90
S:Henry Atkinson's original MS,Hartburn,N'umberland,1694.
O:England
A:Hartburn,Northumberland
H:1/4
Z:vmp.Chris Partington.Jan.2004
K:C
gg/g/g|ggg|ee(e/4f/4g/)|c2G|\
cce|ddg|e c/d/e/f/|g3||
dB/c/d|dGd|B/c/dG|d2G|\
c/d/e/f/g|c'>ae|"cr's"g/d/cB|c3|]

